src/assets/icons/widget-combo.svg

<svg xmlns="http://www.w3.org/2000/svg" viewBox="0 0 24 24"><path d="M15 5H18L16.5 7L15 5M5 2H19C20.11 2 21 2.9 21 4V20C21 21.11 20.11 22 19 22H5C3.9 22 3 21.11 3 20V4C3 2.9 3.9 2 5 2M5 4V8H19V4H5M5 20H19V10H5V20M7 12H17V14H7V12M7 16H17V18H7V16Z" /></svg>

<svg xmlns="http://www.w3.org/2000/svg" viewBox="0 0 24 24"><path d="M15 5h3l-1.5 2L15 5M5 2h14a2 2 0 0 1 2 2v16c0 1.11-.89 2-2 2H5a2 2 0 0 1-2-2V4c0-1.1.9-2 2-2m0 2v4h14V4H5m0 16h14V10H5v10m2-8h10v2H7v-2m0 4h10v2H7v-2Z"/></svg>
